Newaita-dark/actions/symbolic/format-indent-more-symbolic.svg

<svg height="16" viewBox="0 0 16 16" width="16" xmlns="http://www.w3.org/2000/svg"><g fill="#e0e0e0"><path d="m14.222656 1.117188h-12.570312c-.363282 0-.660156.296874-.660156.660156v.664062c0 .363282.296874.660156.660156.660156h12.570312c.367188 0 .660156-.296874.660156-.660156v-.664062c0-.363282-.292968-.660156-.660156-.660156zm0 0"/><path d="m14.222656 13.023438h-12.570312c-.363282 0-.660156.296874-.660156.664062v.660156c0 .367188.296874.660156.660156.660156h12.570312c.367188 0 .660156-.292968.660156-.660156v-.660156c0-.367188-.292968-.664062-.660156-.664062zm0 0"/><path d="m14.222656 5.085938h-6.945312c-.367188 0-.664063.296874-.664063.660156v.664062c0 .363282.296875.660156.664063.660156h6.945312c.367188 0 .660156-.296874.660156-.660156v-.664062c0-.363282-.292968-.660156-.660156-.660156zm0 0"/><path d="m14.222656 9.054688h-6.945312c-.367188 0-.664063.296874-.664063.664062v.660156c0 .363282.296875.660156.664063.660156h6.945312c.367188 0 .660156-.296874.660156-.660156v-.660156c0-.367188-.292968-.664062-.660156-.664062zm0 0"/><path d="m1.320312 5.074219c-.1875.003906-.339843.15625-.339843.34375v5.292969c0 .273437.304687.4375.53125.285156l3.972656-2.648438c.203125-.136718.203125-.433594 0-.570312l-3.972656-2.644532c-.054688-.039062-.125-.058593-.191407-.058593zm0 0"/></g></svg>

<?xml version="1.0" encoding="UTF-8"?>
<svg xmlns="http://www.w3.org/2000/svg" xmlns:xlink="http://www.w3.org/1999/xlink" width="16px" height="16px" viewBox="0 0 16 16" version="1.1">
<g id="surface1">
<path style=" stroke:none;fill-rule:nonzero;fill:rgb(87.843138%,87.843138%,87.843138%);fill-opacity:1;" d="M 14.222656 1.117188 L 1.652344 1.117188 C 1.289062 1.117188 0.992188 1.414062 0.992188 1.777344 L 0.992188 2.441406 C 0.992188 2.804688 1.289062 3.101562 1.652344 3.101562 L 14.222656 3.101562 C 14.589844 3.101562 14.882812 2.804688 14.882812 2.441406 L 14.882812 1.777344 C 14.882812 1.414062 14.589844 1.117188 14.222656 1.117188 Z M 14.222656 1.117188 "/>
<path style=" stroke:none;fill-rule:nonzero;fill:rgb(87.843138%,87.843138%,87.843138%);fill-opacity:1;" d="M 14.222656 13.023438 L 1.652344 13.023438 C 1.289062 13.023438 0.992188 13.320312 0.992188 13.6875 L 0.992188 14.347656 C 0.992188 14.714844 1.289062 15.007812 1.652344 15.007812 L 14.222656 15.007812 C 14.589844 15.007812 14.882812 14.714844 14.882812 14.347656 L 14.882812 13.6875 C 14.882812 13.320312 14.589844 13.023438 14.222656 13.023438 Z M 14.222656 13.023438 "/>
<path style=" stroke:none;fill-rule:nonzero;fill:rgb(87.843138%,87.843138%,87.843138%);fill-opacity:1;" d="M 14.222656 5.085938 L 7.277344 5.085938 C 6.910156 5.085938 6.613281 5.382812 6.613281 5.746094 L 6.613281 6.410156 C 6.613281 6.773438 6.910156 7.070312 7.277344 7.070312 L 14.222656 7.070312 C 14.589844 7.070312 14.882812 6.773438 14.882812 6.410156 L 14.882812 5.746094 C 14.882812 5.382812 14.589844 5.085938 14.222656 5.085938 Z M 14.222656 5.085938 "/>
<path style=" stroke:none;fill-rule:nonzero;fill:rgb(87.843138%,87.843138%,87.843138%);fill-opacity:1;" d="M 14.222656 9.054688 L 7.277344 9.054688 C 6.910156 9.054688 6.613281 9.351562 6.613281 9.71875 L 6.613281 10.378906 C 6.613281 10.742188 6.910156 11.039062 7.277344 11.039062 L 14.222656 11.039062 C 14.589844 11.039062 14.882812 10.742188 14.882812 10.378906 L 14.882812 9.71875 C 14.882812 9.351562 14.589844 9.054688 14.222656 9.054688 Z M 14.222656 9.054688 "/>
<path style=" stroke:none;fill-rule:nonzero;fill:rgb(87.843138%,87.843138%,87.843138%);fill-opacity:1;" d="M 1.320312 5.074219 C 1.132812 5.078125 0.980469 5.230469 0.980469 5.417969 L 0.980469 10.710938 C 0.980469 10.984375 1.285156 11.148438 1.511719 10.996094 L 5.484375 8.347656 C 5.6875 8.210938 5.6875 7.914062 5.484375 7.777344 L 1.511719 5.132812 C 1.457031 5.09375 1.386719 5.074219 1.320312 5.074219 Z M 1.320312 5.074219 "/>
</g>
</svg>
